src/files/images/icon-dribbble.svg

<?xml version="1.0" encoding="UTF-8" standalone="no"?>
<svg width="54px" height="54px" viewBox="0 0 54 54" version="1.1" xmlns="http://www.w3.org/2000/svg" xmlns:xlink="http://www.w3.org/1999/xlink" xmlns:sketch="http://www.bohemiancoding.com/sketch/ns">
    <!-- Generator: Sketch 3.1.1 (8761) - http://www.bohemiancoding.com/sketch -->
    <title>dribbble</title>
    <desc>Created with Sketch.</desc>
    <defs></defs>
    <g id="Page-1" stroke="none" stroke-width="1" fill="none" fill-rule="evenodd" sketch:type="MSPage">
        <g id="Desktop" sketch:type="MSArtboardGroup" transform="translate(-432.000000, -7047.000000)" fill="#FFFFFF">
            <g id="social" sketch:type="MSLayerGroup" transform="translate(292.000000, 7047.000000)">
                <g id="dribbble" transform="translate(140.000000, 0.000000)" sketch:type="MSShapeGroup">
                    <path d="M25,22.9186737 C23.4703896,19.8048499 21.565974,16.8107885 19.3323377,14 C15.4120779,16.1774992 12.6719481,20.2748268 12,24.9274167 C12.5402597,24.9673375 13.1514286,25 13.7642857,25 C17.6119481,25 21.3887013,24.3013857 25,22.9186737 L25,22.9186737 Z" id="Shape"></path>
                    <path d="M28,27.1470543 C27.7299278,26.4270169 27.4385341,25.7069796 27.1364797,25 C22.9201555,26.6116897 18.510161,27.4268615 14.011327,27.4268615 C13.3947807,27.4268615 12.7533592,27.4007462 12,27.3485155 C12.1599112,30.9692212 13.5120489,34.3399658 15.8680733,37 C18.7962243,32.3607959 23.0569684,28.9042437 28,27.1470543 L28,27.1470543 Z" id="Shape"></path>
                    <path d="M37,16.0009577 C34.2461362,13.4152461 30.6553838,12 26.8035509,12 C25.5285477,12 24.2535445,12.1689332 23,12.4981804 C25.2871376,15.1855966 27.2470303,18.0402222 28.8439137,21 C31.7247413,19.736449 34.4589347,18.0609079 37,16.0009577 L37,16.0009577 Z" id="Shape"></path>
                    <path d="M18,39.1139717 C20.6653039,41.0015699 23.7904061,42 27.0872172,42 C28.7432543,42 30.3935677,41.7324961 32,41.2012559 C31.6470428,37.3149137 30.8781684,33.5510204 29.70864,30 C24.8969747,31.5937206 20.7835923,34.7943485 18,39.1139717 L18,39.1139717 Z" id="Shape"></path>
                    <path d="M27,0 C12.087,0 0,12.087 0,27 C0,41.913 12.087,54 27,54 C41.913,54 54,41.913 54,27 C54,12.087 41.913,0 27,0 L27,0 Z M26.5,44 C16.8521306,44 9,36.1514289 9,26.5 C9,16.8503509 16.8521306,9 26.5,9 C36.1478694,9 44,16.8503509 44,26.5 C44,36.1514289 36.1478694,44 26.5,44 L26.5,44 Z" id="Shape"></path>
                    <path d="M32,29.3782271 C33.0213523,32.7576255 33.7259786,36.3214232 34.0996441,40 C37.6690391,37.7778009 40.1868327,34.0540651 41,29.7526704 C39.2348754,29.2559214 37.4839858,29.0000205 35.7846975,29.0000205 C34.5409253,28.9981388 33.272242,29.1260893 32,29.3782271 L32,29.3782271 Z" id="Shape"></path>
                    <path d="M30,24.4557377 C30.3805017,25.2443716 30.7401798,26.0312568 31.0676763,26.8128962 C32.7789872,26.4859016 34.4789399,26.3232787 36.1315665,26.3232787 C38.0473261,26.3232787 40.0179839,26.5506011 42,27 C41.9848557,24.1217486 41.0534785,21.3728962 39.2891623,19 C36.3871273,21.2469945 33.2749645,23.0795628 30,24.4557377 L30,24.4557377 Z" id="Shape"></path>
                </g>
            </g>
        </g>
    </g>
</svg>

<svg width="54" height="54" viewBox="0 0 54 54" xmlns="http://www.w3.org/2000/svg" xmlns:sketch="http://www.bohemiancoding.com/sketch/ns"><title>dribbble</title><desc>Created with Sketch.</desc><path d="M25 22.919c-1.53-3.114-3.434-6.108-5.668-8.919-3.92 2.177-6.66 6.275-7.332 10.927.54.04 1.151.073 1.764.073 3.848 0 7.624-.699 11.236-2.081zm3 4.228c-.27-.72-.561-1.44-.864-2.147-4.216 1.612-8.626 2.427-13.125 2.427-.617 0-1.258-.026-2.011-.078.16 3.621 1.512 6.991 3.868 9.651 2.928-4.639 7.189-8.096 12.132-9.853zm9-11.146c-2.754-2.586-6.345-4.001-10.196-4.001-1.275 0-2.55.169-3.804.498 2.287 2.687 4.247 5.542 5.844 8.502 2.881-1.264 5.615-2.939 8.156-4.999zm-19 23.113c2.665 1.888 5.79 2.886 9.087 2.886 1.656 0 3.306-.268 4.913-.799-.353-3.886-1.122-7.65-2.291-11.201-4.812 1.594-8.925 4.794-11.709 9.114zm9-39.114c-14.913 0-27 12.087-27 27s12.087 27 27 27 27-12.087 27-27-12.087-27-27-27zm-.5 44c-9.648 0-17.5-7.849-17.5-17.5 0-9.65 7.852-17.5 17.5-17.5s17.5 7.85 17.5 17.5c0 9.651-7.852 17.5-17.5 17.5zm5.5-14.622c1.021 3.379 1.726 6.943 2.1 10.622 3.569-2.222 6.087-5.946 6.9-10.247-1.765-.497-3.516-.753-5.215-.753-1.244-.002-2.512.126-3.785.378zm-2-4.922c.381.789.74 1.576 1.068 2.357 1.711-.327 3.411-.49 5.064-.49 1.916 0 3.886.227 5.868.677-.015-2.878-.947-5.627-2.711-8-2.902 2.247-6.014 4.08-9.289 5.456z" sketch:type="MSShapeGroup" fill="#fff"/></svg>
